core/icons/src/images/chains/Neutron.svg

<svg xmlns="http://www.w3.org/2000/svg" width="64" height="64" viewBox="-4 -4 64 64" fill="none"> <path fill-rule="evenodd" clip-rule="evenodd" d="M56 0H3.96053L19.2503 18.0319C21.5854 15.9808 24.6472 14.737 27.9996 14.737C35.3246 14.737 41.2627 20.6752 41.2627 28.0002C41.2627 31.2952 40.0612 34.3096 38.0723 36.629L55.9999 52.1316L56 56V0ZM49.2762 56L35.0564 39.2322C33.0127 40.519 30.5931 41.2634 27.9996 41.2634C20.6745 41.2634 14.7364 35.3252 14.7364 28.0002C14.7364 25.4215 15.4723 23.0147 16.7456 20.9783L0 6.53947V56L49.2762 56Z" fill="white"/> </svg>

<svg xmlns="http://www.w3.org/2000/svg" width="64" height="64" fill="none" viewBox="-4 -4 64 64"><path fill="#fff" fill-rule="evenodd" d="M56 0H3.96l15.29 18.032A13.213 13.213 0 0 1 28 14.737c7.325 0 13.263 5.938 13.263 13.263a13.21 13.21 0 0 1-3.19 8.629L56 52.132V56 0Zm-6.724 56-14.22-16.768A13.2 13.2 0 0 1 28 41.263c-7.326 0-13.264-5.938-13.264-13.263 0-2.578.736-4.985 2.01-7.022L0 6.54V56h49.276Z" clip-rule="evenodd"/></svg>
